Catalina-light/actions/16/depth16to8.svg

<svg xmlns="http://www.w3.org/2000/svg" width="16" height="16" viewBox="0 0 16 16">
 <defs>
  <style id="current-color-scheme" type="text/css">
   .ColorScheme-Text { color:#5c616c; } .ColorScheme-Highlight { color:#5294e2; }
  </style>
 </defs>
 <path style="fill:currentColor" class="ColorScheme-Text" d="M 1 0.73046875 L 1 1.7304688 L 2 1.7304688 L 2 7.7304688 L 3 7.7304688 L 3 0.73046875 L 2 0.73046875 L 1 0.73046875 z M 6 0.73046875 A 2 2 0 0 0 4 2.7304688 L 4 5.7304688 A 2 2 0 0 0 6 7.7304688 A 2 2 0 0 0 8 5.7304688 A 2 2 0 0 0 6 3.7304688 A 2 2 0 0 0 5 4 L 5 2.7304688 A 1 1 0 0 1 6 1.7304688 A 1 1 0 0 1 7 2.7304688 L 8 2.7304688 A 2 2 0 0 0 6 0.73046875 z M 8 1 L 8 2 A 7 7 0 0 1 14.308594 6 L 10.699219 6 L 10.699219 7 L 14.699219 7 L 15.699219 7 L 15.699219 6.8867188 L 15.699219 6 L 15.699219 2 L 14.699219 2 L 14.699219 4.65625 A 8 8 0 0 0 8 1 z M 6 4.7304688 A 1 1 0 0 1 7 5.7304688 A 1 1 0 0 1 6 6.7304688 A 1 1 0 0 1 5 5.7304688 A 1 1 0 0 1 6 4.7304688 z M 14 8 A 2 2 0 0 0 12 10 A 2 2 0 0 0 12.679688 11.5 A 2 2 0 0 0 12 13 A 2 2 0 0 0 14 15 A 2 2 0 0 0 16 13 A 2 2 0 0 0 15.320312 11.5 A 2 2 0 0 0 16 10 A 2 2 0 0 0 14 8 z M 1 9 L 1 9.1132812 L 1 10 L 1 14 L 2 14 L 2 11.34375 A 8 8 0 0 0 8.6992188 15 L 8.6992188 14 A 7 7 0 0 1 2.390625 10 L 6 10 L 6 9 L 1.9980469 9 L 1 9 z M 14 9 A 1 1 0 0 1 15 10 A 1 1 0 0 1 14 11 A 1 1 0 0 1 13 10 A 1 1 0 0 1 14 9 z M 14 12 A 1 1 0 0 1 15 13 A 1 1 0 0 1 14 14 A 1 1 0 0 1 13 13 A 1 1 0 0 1 14 12 z"/>
</svg>

<svg width="16" height="16" viewBox="0 0 16 16" xmlns="http://www.w3.org/2000/svg">
<defs>
<style id="current-color-scheme" type="text/css">.ColorScheme-Text { color:#5c616c; } .ColorScheme-Highlight { color:#5294e2; }</style>
</defs>
<path class="ColorScheme-Text" d="m1 0.73047v1h1v6h1v-7h-2zm5 0a2 2 0 0 0-2 2v3a2 2 0 0 0 2 2 2 2 0 0 0 2-2 2 2 0 0 0-2-2 2 2 0 0 0-1 0.26953v-1.2695a1 1 0 0 1 1-1 1 1 0 0 1 1 1h1a2 2 0 0 0-2-2zm2 0.26953v1a7 7 0 0 1 6.3086 4h-3.6094v1h5v-5h-1v2.6562a8 8 0 0 0-6.6992-3.6562zm-2 3.7305a1 1 0 0 1 1 1 1 1 0 0 1-1 1 1 1 0 0 1-1-1 1 1 0 0 1 1-1zm8 3.2695a2 2 0 0 0-2 2 2 2 0 0 0 0.67969 1.5 2 2 0 0 0-0.67969 1.5 2 2 0 0 0 2 2 2 2 0 0 0 2-2 2 2 0 0 0-0.67969-1.5 2 2 0 0 0 0.67969-1.5 2 2 0 0 0-2-2zm-13 1v5h1v-2.6562a8 8 0 0 0 6.6992 3.6562v-1a7 7 0 0 1-6.3086-4h3.6094v-1h-5zm13 0a1 1 0 0 1 1 1 1 1 0 0 1-1 1 1 1 0 0 1-1-1 1 1 0 0 1 1-1zm0 3a1 1 0 0 1 1 1 1 1 0 0 1-1 1 1 1 0 0 1-1-1 1 1 0 0 1 1-1z" fill="currentColor"/>
</svg>
